X:2163
T:Three little boats went out to sea 
C:J Cubbon 
C:Traditional
O:Isle of Man
Z:Clague collection
N:See KV4
B:Kiaull Vannin #163 
M:6/8 
Q:180 
K:D 
FBB B2c|d2d c3|(dB)B B3|(cF)F F3|FBB B2c|d2e f3|f2f edc|B3 B3| 
dcc B2c|d2e f3|(gf)e f3|gfe f3|d2c Bcc|dde f3|(gf)e fec|B3 B3|| 

